X:408
T:Il est bien temps
Z:Jack Campin, http://www.campin.me.uk/
F:Jack Campin's Nine-Note Tunebook
% last edit 03-02-2013
M:2/4
L:1/16
K:GMin
D2|G4 A2B2|A3G ^F2D2|G4  A2B2 |c3B   A2B2|
   G4 A2B2|A3G ^F2D2|G3B A2^F2|G6       :|
D2|G4 A2B2|c3B  A2B2|d4 ^c2B2 |ABAG ^F2D2|
   G4 A2B2|c3B  A2B2|G3B A2^F2|G6       :|

